www/assets/icons/scale.svg

<svg xmlns="http://www.w3.org/2000/svg" width="24" height="24" viewBox="0 0 24 24" fill='currentColor'><path d="M14 11V8c4.56-.58 8-3.1 8-6H2c0 2.9 3.44 5.42 8 6v3c-3.68.73-8 3.61-8 11h6v-2H4.13c.93-6.83 6.65-7.2 7.87-7.2s6.94.37 7.87 7.2H16v2h6c0-7.39-4.32-10.27-8-11m-2 11c-1.1 0-2-.9-2-2 0-.55.22-1.05.59-1.41C11.39 17.79 16 16 16 16s-1.79 4.61-2.59 5.41c-.36.37-.86.59-1.41.59"/></svg>

<svg width="24" height="24" viewBox="0 0 24 24" xmlns="http://www.w3.org/2000/svg" fill='currentColor'><path d="M14 11V8C18.56 7.42 22 4.9 22 2H2C2 4.9 5.44 7.42 10 8V11C6.32 11.73 2 14.61 2 22H8V20H4.13C5.06 13.17 10.78 12.8 12 12.8C13.22 12.8 18.94 13.17 19.87 20H16V22H22C22 14.61 17.68 11.73 14 11ZM12 22C10.9 22 10 21.1 10 20C10 19.45 10.22 18.95 10.59 18.59C11.39 17.79 16 16 16 16C16 16 14.21 20.61 13.41 21.41C13.05 21.78 12.55 22 12 22Z"/></svg>
